packages/dnb-eufemia/assets/icons/baby.svg

<svg width="16" height="16" viewBox="0 0 16 16" fill="none" xmlns="http://www.w3.org/2000/svg">
<path d="M10.0868 11.381C8.99012 12.6207 7.00964 12.6207 5.91294 11.381M9.54797 1C11.8352 2.53535 10.6684 6.2636 7.92399 6.18891C6.66442 6.15462 5.62741 5.26943 5.28647 4.06349M5.28647 4.06349C6.09772 3.60883 7.02618 3.35453 7.99988 3.35453C10.4654 3.35453 12.6408 4.98497 13.3578 7.37018C14.2513 7.37018 14.9999 8.11466 14.9999 9.02171C14.9999 9.92876 14.2513 10.6732 13.3578 10.6732C12.6408 13.0584 10.4654 14.6889 7.99988 14.6889C5.53438 14.6889 3.35894 13.0584 2.64192 10.6732C1.7485 10.6732 0.999878 9.92876 0.999878 9.02171C0.999878 8.11466 1.7485 7.37018 2.64192 7.37018C3.07577 5.92696 4.04356 4.76007 5.28647 4.06349Z" stroke="black" stroke-width="1.5" stroke-linecap="round" stroke-linejoin="round"/>
<path d="M6.66341 9.16667C6.66341 9.53486 6.36493 9.83333 5.99674 9.83333C5.62855 9.83333 5.33008 9.53486 5.33008 9.16667C5.33008 8.79848 5.62855 8.5 5.99674 8.5C6.36493 8.5 6.66341 8.79848 6.66341 9.16667Z" fill="black"/>
<path d="M10.6634 9.16667C10.6634 9.53486 10.3649 9.83333 9.99675 9.83333C9.62856 9.83333 9.33008 9.53486 9.33008 9.16667C9.33008 8.79848 9.62856 8.5 9.99675 8.5C10.3649 8.5 10.6634 8.79848 10.6634 9.16667Z" fill="black"/>
</svg>

<svg width="16" height="16" viewBox="0 0 16 16" fill="none" xmlns="http://www.w3.org/2000/svg"><path d="M10.087 11.381c-1.097 1.24-3.077 1.24-4.174 0M9.548 1c2.287 1.535 1.12 5.264-1.624 5.189-1.26-.034-2.297-.92-2.637-2.126m0 0A5.54 5.54 0 0 1 8 3.355c2.465 0 4.64 1.63 5.358 4.015A1.66 1.66 0 0 1 15 9.022c0 .907-.749 1.651-1.642 1.651C12.64 13.058 10.465 14.69 8 14.69c-2.466 0-4.641-1.63-5.358-4.016A1.659 1.659 0 0 1 1 9.022 1.66 1.66 0 0 1 2.642 7.37a5.647 5.647 0 0 1 2.645-3.307Zm.698 5.01h.023m3.977 0h.023" stroke="#000" stroke-width="1.5" stroke-linecap="round" stroke-linejoin="round"/></svg>
